X: 3
T: The Grumbling Old Man And Woman
R: reel
M: 4/4
L: 1/8
K: Dmaj
(A,B,) |:A,2 (A,C)EA, CE|DG,B,D GDB,G, |A,2 (A,C) EA, CE |[1DG, B,D A,2 (A,B,) :|[2DG, B,D A,2 (cd) ::efed cdef |ged=c (BG) G2 |ef ed cd ec |(ea) (a^g) a2 (ef) |gfed cdef |ged=c (BG) G2 |=cABG AG ED |[1GE DB, A,2 (cd) :|[2GE DB, A,2 z2 :|


Tune 1006	Setting 1006

